tools/download-figma-icons/icons/outlined-medium/garage.svg

<svg width="24" height="25" viewBox="0 0 24 25" fill="none" xmlns="http://www.w3.org/2000/svg">
<path d="M15.7425 18.7422H8.25C7.8375 18.7422 7.5 19.0797 7.5 19.4922C7.5 19.9047 7.8375 20.2422 8.25 20.2422H15.7425C16.155 20.2422 16.4925 19.9047 16.4925 19.4922C16.4925 19.0797 16.155 18.7422 15.7425 18.7422Z" fill="black"/>
<path d="M15.7425 15.7422H8.25C7.8375 15.7422 7.5 16.0797 7.5 16.4922C7.5 16.9047 7.8375 17.2422 8.25 17.2422H15.7425C16.155 17.2422 16.4925 16.9047 16.4925 16.4922C16.4925 16.0797 16.155 15.7422 15.7425 15.7422Z" fill="black"/>
<path d="M15.7425 12.7422H8.25C7.8375 12.7422 7.5 13.0797 7.5 13.4922C7.5 13.9047 7.8375 14.2422 8.25 14.2422H15.7425C16.155 14.2422 16.4925 13.9047 16.4925 13.4922C16.4925 13.0797 16.155 12.7422 15.7425 12.7422Z" fill="black"/>
<path d="M23.235 22.4927H22.5L22.485 8.64016L22.8375 8.87266C22.965 8.95516 23.1075 9.00016 23.25 9.00016C23.49 9.00016 23.73 8.88016 23.8725 8.66266C24.105 8.31766 24.0075 7.85266 23.6625 7.62016L12.42 0.127656C12.165 -0.0373438 11.8425 -0.0373438 11.5875 0.127656L0.345 7.62016C0 7.85266 -0.09 8.31766 0.135 8.66266C0.36 9.00766 0.825 9.09766 1.1775 8.87266L1.515 8.64766L1.53 22.4927H0.75C0.3375 22.4927 0 22.8302 0 23.2427C0 23.6552 0.3375 23.9927 0.75 23.9927H2.22C2.22 23.9927 2.2575 24.0077 2.28 24.0077L11.445 23.9927H23.235C23.6475 23.9927 23.985 23.6552 23.985 23.2427C23.985 22.8302 23.6475 22.4927 23.235 22.4927ZM5.9925 22.4927V11.3627C5.9925 10.8977 6.3 10.5002 6.66 10.5002H17.31C17.6775 10.5002 17.9775 10.8977 17.9775 11.3627V22.4852H11.445L5.985 22.4927H5.9925ZM3.0075 7.65016L12 1.65766L20.9775 7.64266L20.9925 22.4852H19.4775V11.3627C19.4775 10.0577 18.5025 9.00016 17.31 9.00016H6.66C5.4675 9.00016 4.4925 10.0577 4.4925 11.3627V22.4927H3.0225L3.0075 7.65016Z" fill="black"/>
</svg>

<svg width="24" height="25" viewBox="0 0 24 25" fill="none" xmlns="http://www.w3.org/2000/svg"><path d="M15.742 18.742H8.25a.752.752 0 0 0-.75.75c0 .413.338.75.75.75h7.492c.413 0 .75-.337.75-.75a.752.752 0 0 0-.75-.75Zm0-3H8.25a.752.752 0 0 0-.75.75c0 .413.338.75.75.75h7.492c.413 0 .75-.337.75-.75a.752.752 0 0 0-.75-.75Zm0-3H8.25a.752.752 0 0 0-.75.75c0 .413.338.75.75.75h7.492c.413 0 .75-.337.75-.75a.752.752 0 0 0-.75-.75Z" fill="currentColor"/><path d="M23.235 22.493H22.5L22.485 8.64l.352.233c.128.082.27.127.413.127a.751.751 0 0 0 .413-1.38L12.42.128a.762.762 0 0 0-.832 0L.345 7.62a.758.758 0 0 0-.21 1.043.755.755 0 0 0 1.042.21l.338-.225.015 13.845H.75a.752.752 0 0 0-.75.75c0 .412.338.75.75.75h1.47s.037.015.06.015l9.165-.015h11.79c.413 0 .75-.338.75-.75a.752.752 0 0 0-.75-.75Zm-17.242 0v-11.13c0-.465.307-.863.667-.863h10.65c.367 0 .668.398.668.863v11.122h-6.533l-5.46.008h.007ZM3.006 7.65 12 1.658l8.977 5.985.015 14.842h-1.515V11.363c0-1.305-.974-2.363-2.167-2.363H6.66c-1.192 0-2.168 1.058-2.168 2.363v11.13h-1.47L3.009 7.65Z" fill="currentColor"/></svg>
